assets/img/braze_icons/arrow-circle-up-left.svg

<svg fill="none" height="24" viewBox="0 0 24 24" width="24" xmlns="http://www.w3.org/2000/svg"><path clip-rule="evenodd" d="m19.7782 19.7782c4.2957-4.2958 4.2957-11.26061 0-15.55637-4.2958-4.2957719-11.26061-4.2957719-15.55637 0-4.2957719 4.29576-4.2957719 11.26057 0 15.55637 4.29576 4.2957 11.26057 4.2957 15.55637 0zm-4.2427-4.2427c-.3905.3906-1.0237.3906-1.4142 0l-3.9497-3.9497v3.2426c0 .5523-.44774 1-1.00003 1-.55228 0-1-.4477-1-1v-5.65683c0-.55228.44772-1 1-1h5.65683c.5523 0 1 .44772 1 1 0 .55229-.4477 1.00003-1 1.00003h-3.2426l3.9497 3.9497c.3906.3905.3906 1.0237 0 1.4142z" fill="#801ed7" fill-rule="evenodd"/></svg>

<svg width="24" height="24" viewBox="0 0 24 24" fill="none" xmlns="http://www.w3.org/2000/svg">
<path fill-rule="evenodd" clip-rule="evenodd" d="M19.7782 19.7782C24.0739 15.4824 24.0739 8.51759 19.7782 4.22183C15.4824 -0.0739419 8.51759 -0.0739419 4.22183 4.22183C-0.0739419 8.51759 -0.0739419 15.4824 4.22183 19.7782C8.51759 24.0739 15.4824 24.0739 19.7782 19.7782ZM15.5355 15.5355C15.145 15.9261 14.5118 15.9261 14.1213 15.5355L10.1716 11.5858V14.8284C10.1716 15.3807 9.72386 15.8284 9.17157 15.8284C8.61929 15.8284 8.17157 15.3807 8.17157 14.8284V9.17157C8.17157 8.61929 8.61929 8.17157 9.17157 8.17157H14.8284C15.3807 8.17157 15.8284 8.61929 15.8284 9.17157C15.8284 9.72386 15.3807 10.1716 14.8284 10.1716H11.5858L15.5355 14.1213C15.9261 14.5118 15.9261 15.145 15.5355 15.5355Z" fill="#801ED7"/>
</svg>
